images/3232662.svg

<?xml version="1.0" encoding="UTF-8"?>
<svg xmlns="http://www.w3.org/2000/svg" xmlns:xlink="http://www.w3.org/1999/xlink" width="300pt" height="300pt" viewBox="0 0 300 300" version="1.1">
<defs>
<g>
<symbol overflow="visible" id="glyph0-0">
<path style="stroke:none;" d="M 0.453125 1.59375 L 0.453125 -6.34375 L 4.953125 -6.34375 L 4.953125 1.59375 Z M 0.953125 1.09375 L 4.453125 1.09375 L 4.453125 -5.84375 L 0.953125 -5.84375 Z M 0.953125 1.09375 "/>
</symbol>
<symbol overflow="visible" id="glyph0-1">
<path style="stroke:none;" d="M 3.546875 -5.953125 C 2.898438 -5.953125 2.382812 -5.710938 2 -5.234375 C 1.625 -4.753906 1.4375 -4.101562 1.4375 -3.28125 C 1.4375 -2.445312 1.625 -1.789062 2 -1.3125 C 2.382812 -0.832031 2.898438 -0.59375 3.546875 -0.59375 C 4.191406 -0.59375 4.703125 -0.832031 5.078125 -1.3125 C 5.453125 -1.789062 5.640625 -2.445312 5.640625 -3.28125 C 5.640625 -4.101562 5.453125 -4.753906 5.078125 -5.234375 C 4.703125 -5.710938 4.191406 -5.953125 3.546875 -5.953125 Z M 3.546875 -6.6875 C 4.460938 -6.6875 5.195312 -6.375 5.75 -5.75 C 6.300781 -5.132812 6.578125 -4.3125 6.578125 -3.28125 C 6.578125 -2.238281 6.300781 -1.410156 5.75 -0.796875 C 5.195312 -0.179688 4.460938 0.125 3.546875 0.125 C 2.617188 0.125 1.878906 -0.179688 1.328125 -0.796875 C 0.773438 -1.410156 0.5 -2.238281 0.5 -3.28125 C 0.5 -4.3125 0.773438 -5.132812 1.328125 -5.75 C 1.878906 -6.375 2.617188 -6.6875 3.546875 -6.6875 Z M 3.546875 -6.6875 "/>
</symbol>
<symbol overflow="visible" id="glyph0-2">
<path style="stroke:none;" d="M 0.890625 -6.5625 L 2.078125 -6.5625 L 4.984375 -1.078125 L 4.984375 -6.5625 L 5.84375 -6.5625 L 5.84375 0 L 4.65625 0 L 1.75 -5.484375 L 1.75 0 L 0.890625 0 Z M 0.890625 -6.5625 "/>
</symbol>
</g>
</defs>
<g id="surface29889">
<rect x="0" y="0" width="300" height="300" style="fill:rgb(100%,100%,100%);fill-opacity:1;stroke:none;"/>
<path style="fill:none;stroke-width:1.2;stroke-linecap:butt;stroke-linejoin:miter;stroke:rgb(0%,0%,0%);stroke-opacity:1;stroke-miterlimit:10;" d="M 35.25 158.429688 L 42.242188 167.925781 "/>
<path style="fill:none;stroke-width:1.2;stroke-linecap:butt;stroke-linejoin:miter;stroke:rgb(100%,0%,0%);stroke-opacity:1;stroke-miterlimit:10;" d="M 42.242188 167.925781 L 49.238281 177.425781 "/>
<path style="fill:none;stroke-width:1.2;stroke-linecap:butt;stroke-linejoin:miter;stroke:rgb(100%,0%,0%);stroke-opacity:1;stroke-miterlimit:10;" d="M 49.238281 177.425781 L 60.957031 176.117188 "/>
<path style="fill:none;stroke-width:1.2;stroke-linecap:butt;stroke-linejoin:miter;stroke:rgb(0%,0%,0%);stroke-opacity:1;stroke-miterlimit:10;" d="M 60.957031 176.117188 L 72.679688 174.808594 "/>
<path style=" stroke:none;fill-rule:nonzero;fill:rgb(100%,100%,100%);fill-opacity:1;" d="M 45.238281 171.925781 L 53.238281 171.925781 L 53.238281 182.925781 L 45.238281 182.925781 Z M 45.238281 171.925781 "/>
<g style="fill:rgb(100%,0%,0%);fill-opacity:1;">
  <use xlink:href="#glyph0-1" x="45.238281" y="180.588867"/>
</g>
<path style="fill:none;stroke-width:1.2;stroke-linecap:butt;stroke-linejoin:miter;stroke:rgb(0%,0%,0%);stroke-opacity:1;stroke-miterlimit:10;" d="M 72.679688 174.808594 L 82.132812 153.195312 "/>
<path style="fill:none;stroke-width:1.2;stroke-linecap:butt;stroke-linejoin:miter;stroke:rgb(0%,0%,0%);stroke-opacity:1;stroke-miterlimit:10;" d="M 78.710938 174.871094 L 86.273438 157.582031 "/>
<path style="fill:none;stroke-width:1.2;stroke-linecap:butt;stroke-linejoin:miter;stroke:rgb(0%,0%,0%);stroke-opacity:1;stroke-miterlimit:10;" d="M 86.667969 193.800781 L 72.679688 174.808594 "/>
<path style="fill:none;stroke-width:1.2;stroke-linecap:butt;stroke-linejoin:miter;stroke:rgb(0%,0%,0%);stroke-opacity:1;stroke-miterlimit:10;" d="M 82.132812 153.195312 L 105.578125 150.578125 "/>
<path style="fill:none;stroke-width:1.2;stroke-linecap:butt;stroke-linejoin:miter;stroke:rgb(0%,0%,0%);stroke-opacity:1;stroke-miterlimit:10;" d="M 105.578125 150.578125 L 119.5625 169.574219 "/>
<path style="fill:none;stroke-width:1.2;stroke-linecap:butt;stroke-linejoin:miter;stroke:rgb(0%,0%,0%);stroke-opacity:1;stroke-miterlimit:10;" d="M 102.507812 155.769531 L 113.695312 170.964844 "/>
<path style="fill:none;stroke-width:1.2;stroke-linecap:butt;stroke-linejoin:miter;stroke:rgb(0%,0%,0%);stroke-opacity:1;stroke-miterlimit:10;" d="M 119.5625 169.574219 L 110.109375 191.183594 "/>
<path style="fill:none;stroke-width:1.2;stroke-linecap:butt;stroke-linejoin:miter;stroke:rgb(0%,0%,0%);stroke-opacity:1;stroke-miterlimit:10;" d="M 119.5625 169.574219 L 143.007812 166.957031 "/>
<path style="fill:none;stroke-width:1.2;stroke-linecap:butt;stroke-linejoin:miter;stroke:rgb(0%,0%,0%);stroke-opacity:1;stroke-miterlimit:10;" d="M 110.109375 191.183594 L 86.667969 193.800781 "/>
<path style="fill:none;stroke-width:1.2;stroke-linecap:butt;stroke-linejoin:miter;stroke:rgb(0%,0%,0%);stroke-opacity:1;stroke-miterlimit:10;" d="M 107.148438 185.929688 L 88.394531 188.023438 "/>
<path style="fill:none;stroke-width:1.2;stroke-linecap:butt;stroke-linejoin:miter;stroke:rgb(0%,0%,0%);stroke-opacity:1;stroke-miterlimit:10;" d="M 143.007812 166.957031 L 150 176.453125 "/>
<path style="fill:none;stroke-width:1.2;stroke-linecap:butt;stroke-linejoin:miter;stroke:rgb(0%,0%,100%);stroke-opacity:1;stroke-miterlimit:10;" d="M 150 176.453125 L 156.992188 185.949219 "/>
<path style="fill:none;stroke-width:1.2;stroke-linecap:butt;stroke-linejoin:miter;stroke:rgb(0%,0%,0%);stroke-opacity:1;stroke-miterlimit:10;" d="M 148.875 165.5625 L 154.46875 173.160156 "/>
<path style="fill:none;stroke-width:1.2;stroke-linecap:butt;stroke-linejoin:miter;stroke:rgb(0%,0%,100%);stroke-opacity:1;stroke-miterlimit:10;" d="M 154.46875 173.160156 L 160.0625 180.757812 "/>
<path style="fill:none;stroke-width:1.2;stroke-linecap:butt;stroke-linejoin:miter;stroke:rgb(0%,0%,0%);stroke-opacity:1;stroke-miterlimit:10;" d="M 152.460938 145.34375 L 143.007812 166.957031 "/>
<path style="fill:none;stroke-width:1.2;stroke-linecap:butt;stroke-linejoin:miter;stroke:rgb(0%,0%,100%);stroke-opacity:1;stroke-miterlimit:10;" d="M 156.992188 185.949219 L 168.714844 184.640625 "/>
<path style="fill:none;stroke-width:1.2;stroke-linecap:butt;stroke-linejoin:miter;stroke:rgb(0%,0%,0%);stroke-opacity:1;stroke-miterlimit:10;" d="M 168.714844 184.640625 L 180.4375 183.332031 "/>
<path style=" stroke:none;fill-rule:nonzero;fill:rgb(100%,100%,100%);fill-opacity:1;" d="M 153.992188 180.449219 L 160.992188 180.449219 L 160.992188 191.449219 L 153.992188 191.449219 Z M 153.992188 180.449219 "/>
<g style="fill:rgb(0%,0%,100%);fill-opacity:1;">
  <use xlink:href="#glyph0-2" x="153.992188" y="189.112305"/>
</g>
<path style="fill:none;stroke-width:1.2;stroke-linecap:butt;stroke-linejoin:miter;stroke:rgb(0%,0%,0%);stroke-opacity:1;stroke-miterlimit:10;" d="M 180.4375 183.332031 L 194.421875 202.324219 "/>
<path style="fill:none;stroke-width:1.2;stroke-linecap:butt;stroke-linejoin:miter;stroke:rgb(0%,0%,0%);stroke-opacity:1;stroke-miterlimit:10;" d="M 186.304688 181.9375 L 197.492188 197.132812 "/>
<path style="fill:none;stroke-width:1.2;stroke-linecap:butt;stroke-linejoin:miter;stroke:rgb(0%,0%,0%);stroke-opacity:1;stroke-miterlimit:10;" d="M 189.890625 161.722656 L 180.4375 183.332031 "/>
<path style="fill:none;stroke-width:1.2;stroke-linecap:butt;stroke-linejoin:miter;stroke:rgb(0%,0%,0%);stroke-opacity:1;stroke-miterlimit:10;" d="M 194.421875 202.324219 L 206.144531 201.015625 "/>
<path style="fill:none;stroke-width:1.2;stroke-linecap:butt;stroke-linejoin:miter;stroke:rgb(0%,0%,100%);stroke-opacity:1;stroke-miterlimit:10;" d="M 206.144531 201.015625 L 217.867188 199.707031 "/>
<path style="fill:none;stroke-width:1.2;stroke-linecap:butt;stroke-linejoin:miter;stroke:rgb(0%,0%,100%);stroke-opacity:1;stroke-miterlimit:10;" d="M 217.867188 199.707031 L 222.59375 188.902344 "/>
<path style="fill:none;stroke-width:1.2;stroke-linecap:butt;stroke-linejoin:miter;stroke:rgb(0%,0%,0%);stroke-opacity:1;stroke-miterlimit:10;" d="M 222.59375 188.902344 L 227.320312 178.097656 "/>
<path style="fill:none;stroke-width:1.2;stroke-linecap:butt;stroke-linejoin:miter;stroke:rgb(0%,0%,100%);stroke-opacity:1;stroke-miterlimit:10;" d="M 213.726562 195.320312 L 217.507812 186.675781 "/>
<path style="fill:none;stroke-width:1.2;stroke-linecap:butt;stroke-linejoin:miter;stroke:rgb(0%,0%,0%);stroke-opacity:1;stroke-miterlimit:10;" d="M 217.507812 186.675781 L 221.289062 178.03125 "/>
<path style=" stroke:none;fill-rule:nonzero;fill:rgb(100%,100%,100%);fill-opacity:1;" d="M 214.867188 194.207031 L 221.867188 194.207031 L 221.867188 205.207031 L 214.867188 205.207031 Z M 214.867188 194.207031 "/>
<g style="fill:rgb(0%,0%,100%);fill-opacity:1;">
  <use xlink:href="#glyph0-2" x="214.867188" y="202.870117"/>
</g>
<path style="fill:none;stroke-width:1.2;stroke-linecap:butt;stroke-linejoin:miter;stroke:rgb(0%,0%,0%);stroke-opacity:1;stroke-miterlimit:10;" d="M 227.320312 178.097656 L 220.328125 168.601562 "/>
<path style="fill:none;stroke-width:1.2;stroke-linecap:butt;stroke-linejoin:miter;stroke:rgb(0%,0%,100%);stroke-opacity:1;stroke-miterlimit:10;" d="M 220.328125 168.601562 L 213.332031 159.105469 "/>
<path style="fill:none;stroke-width:1.2;stroke-linecap:butt;stroke-linejoin:miter;stroke:rgb(0%,0%,0%);stroke-opacity:1;stroke-miterlimit:10;" d="M 227.320312 178.097656 L 239.042969 176.789062 "/>
<path style="fill:none;stroke-width:1.2;stroke-linecap:butt;stroke-linejoin:miter;stroke:rgb(100%,0%,0%);stroke-opacity:1;stroke-miterlimit:10;" d="M 239.042969 176.789062 L 250.761719 175.480469 "/>
<path style="fill:none;stroke-width:1.2;stroke-linecap:butt;stroke-linejoin:miter;stroke:rgb(0%,0%,100%);stroke-opacity:1;stroke-miterlimit:10;" d="M 213.332031 159.105469 L 201.613281 160.414062 "/>
<path style="fill:none;stroke-width:1.2;stroke-linecap:butt;stroke-linejoin:miter;stroke:rgb(0%,0%,0%);stroke-opacity:1;stroke-miterlimit:10;" d="M 201.613281 160.414062 L 189.890625 161.722656 "/>
<path style="fill:none;stroke-width:1.2;stroke-linecap:butt;stroke-linejoin:miter;stroke:rgb(0%,0%,100%);stroke-opacity:1;stroke-miterlimit:10;" d="M 211.605469 164.882812 L 202.226562 165.929688 "/>
<path style="fill:none;stroke-width:1.2;stroke-linecap:butt;stroke-linejoin:miter;stroke:rgb(0%,0%,0%);stroke-opacity:1;stroke-miterlimit:10;" d="M 202.226562 165.929688 L 192.851562 166.976562 "/>
<path style=" stroke:none;fill-rule:nonzero;fill:rgb(100%,100%,100%);fill-opacity:1;" d="M 210.332031 153.605469 L 217.332031 153.605469 L 217.332031 164.605469 L 210.332031 164.605469 Z M 210.332031 153.605469 "/>
<g style="fill:rgb(0%,0%,100%);fill-opacity:1;">
  <use xlink:href="#glyph0-2" x="210.332031" y="162.268555"/>
</g>
<path style="fill:none;stroke-width:1.2;stroke-linecap:butt;stroke-linejoin:miter;stroke:rgb(0%,0%,0%);stroke-opacity:1;stroke-miterlimit:10;" d="M 189.890625 161.722656 L 182.898438 152.226562 "/>
<path style="fill:none;stroke-width:1.2;stroke-linecap:butt;stroke-linejoin:miter;stroke:rgb(0%,0%,100%);stroke-opacity:1;stroke-miterlimit:10;" d="M 182.898438 152.226562 L 175.902344 142.726562 "/>
<path style="fill:none;stroke-width:1.2;stroke-linecap:butt;stroke-linejoin:miter;stroke:rgb(0%,0%,100%);stroke-opacity:1;stroke-miterlimit:10;" d="M 175.902344 142.726562 L 164.183594 144.035156 "/>
<path style="fill:none;stroke-width:1.2;stroke-linecap:butt;stroke-linejoin:miter;stroke:rgb(0%,0%,0%);stroke-opacity:1;stroke-miterlimit:10;" d="M 164.183594 144.035156 L 152.460938 145.34375 "/>
<path style="fill:none;stroke-width:1.2;stroke-linecap:butt;stroke-linejoin:miter;stroke:rgb(0%,0%,100%);stroke-opacity:1;stroke-miterlimit:10;" d="M 175.902344 142.726562 L 180.628906 131.921875 "/>
<path style="fill:none;stroke-width:1.2;stroke-linecap:butt;stroke-linejoin:miter;stroke:rgb(0%,0%,0%);stroke-opacity:1;stroke-miterlimit:10;" d="M 180.628906 131.921875 L 185.355469 121.117188 "/>
<path style=" stroke:none;fill-rule:nonzero;fill:rgb(100%,100%,100%);fill-opacity:1;" d="M 172.902344 137.226562 L 179.902344 137.226562 L 179.902344 148.226562 L 172.902344 148.226562 Z M 172.902344 137.226562 "/>
<g style="fill:rgb(0%,0%,100%);fill-opacity:1;">
  <use xlink:href="#glyph0-2" x="172.902344" y="145.889648"/>
</g>
<path style="fill:none;stroke-width:1.2;stroke-linecap:butt;stroke-linejoin:miter;stroke:rgb(0%,0%,0%);stroke-opacity:1;stroke-miterlimit:10;" d="M 154.695312 143.699219 L 147.703125 134.203125 "/>
<path style="fill:none;stroke-width:1.2;stroke-linecap:butt;stroke-linejoin:miter;stroke:rgb(100%,0%,0%);stroke-opacity:1;stroke-miterlimit:10;" d="M 147.703125 134.203125 L 140.707031 124.707031 "/>
<path style="fill:none;stroke-width:1.2;stroke-linecap:butt;stroke-linejoin:miter;stroke:rgb(0%,0%,0%);stroke-opacity:1;stroke-miterlimit:10;" d="M 150.226562 146.992188 L 143.234375 137.496094 "/>
<path style="fill:none;stroke-width:1.2;stroke-linecap:butt;stroke-linejoin:miter;stroke:rgb(100%,0%,0%);stroke-opacity:1;stroke-miterlimit:10;" d="M 143.234375 137.496094 L 136.238281 128 "/>
<path style=" stroke:none;fill-rule:nonzero;fill:rgb(100%,100%,100%);fill-opacity:1;" d="M 130.472656 120.851562 L 138.472656 120.851562 L 138.472656 131.851562 L 130.472656 131.851562 Z M 130.472656 120.851562 "/>
<g style="fill:rgb(100%,0%,0%);fill-opacity:1;">
  <use xlink:href="#glyph0-1" x="130.472656" y="129.514648"/>
</g>
<path style="fill:none;stroke-width:1.2;stroke-linecap:butt;stroke-linejoin:miter;stroke:rgb(0%,0%,0%);stroke-opacity:1;stroke-miterlimit:10;" d="M 185.355469 121.117188 L 182.738281 97.675781 "/>
<path style="fill:none;stroke-width:1.2;stroke-linecap:butt;stroke-linejoin:miter;stroke:rgb(0%,0%,0%);stroke-opacity:1;stroke-miterlimit:10;" d="M 204.351562 107.128906 L 185.355469 121.117188 "/>
<path style="fill:none;stroke-width:1.2;stroke-linecap:butt;stroke-linejoin:miter;stroke:rgb(0%,0%,0%);stroke-opacity:1;stroke-miterlimit:10;" d="M 182.738281 97.675781 L 204.351562 107.128906 "/>
<path style="fill:none;stroke-width:1.2;stroke-linecap:butt;stroke-linejoin:miter;stroke:rgb(100%,0%,0%);stroke-opacity:1;stroke-miterlimit:10;" d="M 250.761719 175.480469 L 257.757812 184.976562 "/>
<path style="fill:none;stroke-width:1.2;stroke-linecap:butt;stroke-linejoin:miter;stroke:rgb(0%,0%,0%);stroke-opacity:1;stroke-miterlimit:10;" d="M 257.757812 184.976562 L 264.75 194.472656 "/>
<path style=" stroke:none;fill-rule:nonzero;fill:rgb(100%,100%,100%);fill-opacity:1;" d="M 246.761719 169.980469 L 254.761719 169.980469 L 254.761719 180.980469 L 246.761719 180.980469 Z M 246.761719 169.980469 "/>
<g style="fill:rgb(100%,0%,0%);fill-opacity:1;">
  <use xlink:href="#glyph0-1" x="246.761719" y="178.643555"/>
</g>
</g>
</svg>

<svg xmlns="http://www.w3.org/2000/svg" xmlns:xlink="http://www.w3.org/1999/xlink" width="300pt" height="300pt" viewBox="0 0 300 300"><defs><symbol overflow="visible"><path d="M.453 1.594v-7.938h4.5v7.938zm.5-.5h3.5v-6.938h-3.5zm0 0"/></symbol><symbol overflow="visible" id="a"><path d="M3.547-5.953c-.65 0-1.164.242-1.547.72-.375.48-.563 1.13-.563 1.952 0 .835.188 1.49.563 1.967.383.48.898.72 1.547.72.644 0 1.156-.24 1.53-.72.376-.476.564-1.132.564-1.968 0-.822-.187-1.474-.562-1.954-.375-.477-.887-.72-1.53-.72zm0-.734c.914 0 1.648.312 2.203.937.55.617.828 1.438.828 2.47 0 1.042-.277 1.87-.828 2.483-.555.617-1.29.922-2.203.922-.93 0-1.668-.305-2.22-.922C.774-1.41.5-2.237.5-3.28c0-1.033.273-1.853.828-2.47.55-.625 1.29-.938 2.22-.938zm0 0"/></symbol><symbol overflow="visible" id="b"><path d="M.89-6.563H2.08l2.906 5.485v-5.484h.86V0H4.656L1.75-5.484V0H.89zm0 0"/></symbol></defs><g><path fill="#fff" d="M0 0h300v300H0z"/><path d="M35.25 158.43l6.992 9.496" stroke-width="1.2" stroke="#000" stroke-miterlimit="10" fill="none"/><path d="M42.242 167.926l6.996 9.5M49.238 177.426l11.72-1.31" stroke-width="1.2" stroke="#f00" stroke-miterlimit="10" fill="none"/><path d="M60.957 176.117l11.723-1.308" stroke-width="1.2" stroke="#000" stroke-miterlimit="10" fill="none"/><path d="M45.238 171.926h8v11h-8zm0 0" fill="#fff"/><use xlink:href="#a" x="45.238" y="180.589" fill="#f00"/><path d="M72.68 174.81l9.453-21.615M78.71 174.87l7.563-17.288M86.668 193.8L72.68 174.81M82.133 153.195l23.445-2.617M105.578 150.578l13.984 18.996M102.508 155.77l11.187 15.195M119.563 169.574l-9.454 21.61M119.563 169.574l23.445-2.617M110.11 191.184L86.667 193.8M107.148 185.93l-18.753 2.093M143.008 166.957l6.992 9.496" stroke-width="1.2" stroke="#000" stroke-miterlimit="10" fill="none"/><path d="M150 176.453l6.992 9.496" stroke-width="1.2" stroke="#00f" stroke-miterlimit="10" fill="none"/><path d="M148.875 165.563l5.594 7.597" stroke-width="1.2" stroke="#000" stroke-miterlimit="10" fill="none"/><path d="M154.47 173.16l5.593 7.598" stroke-width="1.2" stroke="#00f" stroke-miterlimit="10" fill="none"/><path d="M152.46 145.344l-9.452 21.613" stroke-width="1.2" stroke="#000" stroke-miterlimit="10" fill="none"/><path d="M156.992 185.95l11.723-1.31" stroke-width="1.2" stroke="#00f" stroke-miterlimit="10" fill="none"/><path d="M168.715 184.64l11.722-1.308" stroke-width="1.2" stroke="#000" stroke-miterlimit="10" fill="none"/><path d="M153.992 180.45h7v11h-7zm0 0" fill="#fff"/><use xlink:href="#b" x="153.992" y="189.112" fill="#00f"/><path d="M180.438 183.332l13.984 18.992M186.305 181.938l11.187 15.195M189.89 161.723l-9.452 21.61M194.422 202.324l11.723-1.308" stroke-width="1.2" stroke="#000" stroke-miterlimit="10" fill="none"/><path d="M206.145 201.016l11.722-1.31M217.867 199.707l4.727-10.805" stroke-width="1.2" stroke="#00f" stroke-miterlimit="10" fill="none"/><path d="M222.594 188.902l4.726-10.804" stroke-width="1.2" stroke="#000" stroke-miterlimit="10" fill="none"/><path d="M213.727 195.32l3.78-8.644" stroke-width="1.2" stroke="#00f" stroke-miterlimit="10" fill="none"/><path d="M217.508 186.676l3.78-8.645" stroke-width="1.2" stroke="#000" stroke-miterlimit="10" fill="none"/><path d="M214.867 194.207h7v11h-7zm0 0" fill="#fff"/><use xlink:href="#b" x="214.867" y="202.87" fill="#00f"/><path d="M227.32 178.098l-6.992-9.496" stroke-width="1.2" stroke="#000" stroke-miterlimit="10" fill="none"/><path d="M220.328 168.602l-6.996-9.497" stroke-width="1.2" stroke="#00f" stroke-miterlimit="10" fill="none"/><path d="M227.32 178.098l11.723-1.31" stroke-width="1.2" stroke="#000" stroke-miterlimit="10" fill="none"/><path d="M239.043 176.79l11.72-1.31" stroke-width="1.2" stroke="#f00" stroke-miterlimit="10" fill="none"/><path d="M213.332 159.105l-11.72 1.31" stroke-width="1.2" stroke="#00f" stroke-miterlimit="10" fill="none"/><path d="M201.613 160.414l-11.722 1.31" stroke-width="1.2" stroke="#000" stroke-miterlimit="10" fill="none"/><path d="M211.605 164.883l-9.378 1.047" stroke-width="1.2" stroke="#00f" stroke-miterlimit="10" fill="none"/><path d="M202.227 165.93l-9.375 1.047" stroke-width="1.2" stroke="#000" stroke-miterlimit="10" fill="none"/><path d="M210.332 153.605h7v11h-7zm0 0" fill="#fff"/><use xlink:href="#b" x="210.332" y="162.269" fill="#00f"/><path d="M189.89 161.723l-6.992-9.496" stroke-width="1.2" stroke="#000" stroke-miterlimit="10" fill="none"/><path d="M182.898 152.227l-6.996-9.5M175.902 142.727l-11.718 1.308" stroke-width="1.2" stroke="#00f" stroke-miterlimit="10" fill="none"/><path d="M164.184 144.035l-11.723 1.31" stroke-width="1.2" stroke="#000" stroke-miterlimit="10" fill="none"/><path d="M175.902 142.727l4.727-10.805" stroke-width="1.2" stroke="#00f" stroke-miterlimit="10" fill="none"/><path d="M180.63 131.922l4.725-10.805" stroke-width="1.2" stroke="#000" stroke-miterlimit="10" fill="none"/><path d="M172.902 137.227h7v11h-7zm0 0" fill="#fff"/><use xlink:href="#b" x="172.902" y="145.89" fill="#00f"/><path d="M154.695 143.7l-6.992-9.497" stroke-width="1.2" stroke="#000" stroke-miterlimit="10" fill="none"/><path d="M147.703 134.203l-6.996-9.496" stroke-width="1.2" stroke="#f00" stroke-miterlimit="10" fill="none"/><path d="M150.227 146.992l-6.993-9.496" stroke-width="1.2" stroke="#000" stroke-miterlimit="10" fill="none"/><path d="M143.234 137.496L136.238 128" stroke-width="1.2" stroke="#f00" stroke-miterlimit="10" fill="none"/><path d="M130.473 120.852h8v11h-8zm0 0" fill="#fff"/><use xlink:href="#a" x="130.473" y="129.515" fill="#f00"/><path d="M185.355 121.117l-2.617-23.44M204.352 107.13l-18.997 13.987M182.738 97.676l21.614 9.453" stroke-width="1.2" stroke="#000" stroke-miterlimit="10" fill="none"/><path d="M250.762 175.48l6.996 9.497" stroke-width="1.2" stroke="#f00" stroke-miterlimit="10" fill="none"/><path d="M257.758 184.977l6.992 9.496" stroke-width="1.2" stroke="#000" stroke-miterlimit="10" fill="none"/><path d="M246.762 169.98h8v11h-8zm0 0" fill="#fff"/><use xlink:href="#a" x="246.762" y="178.644" fill="#f00"/></g></svg>
